X: 2379
T: Bal Loudieg
R: jig
M: 6/8
K: Adorian
"Am"AGA e2 e|dgf e2 e|"G" ded B2 c|dBG A2 A|
"Am"AGA e2 e|dgf e2 e|"G" ded B2 c|d2 e A2 A||
"Em"B2 B e3|dcB A2 A|BAB e3|dcB "Am"A2 z|
"Em"BAB e2 e|dcB AGA|BAB ege|dcB "Am"A3||

